X:1
T:Vezzosi augelli
T:Simone Molinaro Genovese
T:Source : Canzonette a tre voci---Libro secondo---Venetia---R.Amadino---1600. Editor : André Vierendeels (27/11/16).
T:Notes : Original clefs : C1, C1, C4 Text by Torquato Tasso 
T:Vezzosi augelli
T:©
T:©
T:©
T:©
T:©
C:Simone Molinaro Genovese
Z:©
%%score [ 1 2 3 ]
L:1/8
Q:1/4=98
M:4/4
K:F
V:1 treble nm="Soprano 1" snm="S 1"
V:2 treble nm="Soprano 2" snm="S 2"
V:3 treble-8 nm="Tenor" snm="T"
V:1
 c4 A2 F2 | c4 F4 | c4 d2 d2 | c4 B4 | z2 c3 c B2 | A2 G2 G4 | G4 c2 AB | c2 c2 A2 FG | %8
w: Vez- zo- si'au-|gel- li,|vez- zo- si'au-|gel- li|in- fra le|ver- de fron-|de, tem- pran' a|pro- va, tem- pran' a|
 A2 A2 f3 e | d2 c2 d3 c | A2 G2 A4 | G4 z4 | F3 E F2 E2- | E2 D2 z2 G2 | FEFG A2 GF | G2 c2 BABc | %16
w: pro- va la sci-|vet- te, la sci-|vet- te no-|te,|mor- mo- ra l'au-|* ra e|fa le fo- glie l'on- de Gar-|rir' e fa le fo- gli'e|
 d2 cB c4 |[M:3/4] c2 A2 B2 | G2 A3 G | F2 E2 D2 |[M:4/4] z8 | A2 A2 A4- | A2 GF E4 | E4 z2 c2- | %24
w: l'on- de Gar- rir|che va- ria-|men- t'el- la|per- co- te,||quan- do tac-|* cion gli'au- gel-|li al-|
 cc B2 A2 G2 | z4 d2 d2 | d6 cB | A8 | A4 G2 F2 | E4 D4 | F4 G2 A2 | B4 A2 c2 | c2 d2 _e2 d2 | c8 | %34
w: * to ris- pon- de,|quan- do|can- tan gli'au-|gei|piu lie- ve|sco- te,|sia ca- s'o-|dar- te hor|ac- com- pa- gna'ed|ho-|
 B4 d4 | c2 d2 B2 c2 | d4 z2 c2- | c2 B4 A2 | G4 A3 B | c4 z4 | z2 c2 =B2 c2 | A2 =B2 c4 | c4 B4- | %43
w: ra, al-|ter- nai ver- si|lor la|_ mu- si-|ca o- *|ra,|al- ter- na'i|ver- si lor|la mu-|
 B2 A2 G4 | A8 |] %45
w: * si- ca'o-|ra.|
V:2
 z4 c4 | A2 F2 c4 | F2 A2 A2 B2- | B2 A2 B4 | z2 A3 A G2 | F2 E2 D4 | E4 A2 FG | A2 A2 c2 AB | %8
w: Vez-|zo- si'au- gel-|li, vez- zo- si'au-|* gel- li|in- fra le|ver- de fron-|de, tem- pran' a|pro- va, tem- pran' a|
 c2 c2 d3 c | B2 A2 B3 G | ^F2 G4 F2 | G4 z2 D2- | DC D2 C4 | B,2 B,2 B,A,B,C | D2 CB, C2 F2 | %15
w: pro- va la sci-|vet- te, la sci-|vet- * *|te, mor-|* mo- ra l'au-|ra e fa le fo- glie|l'on- de Gar- rir e|
 EDEF G2 FE |"^-natural" FDFG A4 |[M:3/4] G2 F2 F2 | E2 F3 E | D2 C2 D2 |[M:4/4] z4 F2 F2 | F6 ED | %22
w: fa le fo- gli'e l'on- de Ga-|* * * * rir|che va- ria-|men- t'el- la|per- co- te,|quan- do|tac- cion gli'au-|
 ^C8 | ^C4 z2 A2- | AA G2 ^F2 G2 | z8 | F2 F2 F4- | F2 ED C4 | F4 E2 D2- | D2 ^C2 D4 | %30
w: gel-|li al-|* to ris- pon- de,||Quan- do can-|* tan gli'au- gei|piu lie- ve|_ sco- te,|
 z2 D2 DE F2- | F2 E2 F2 A2 | G2 F2 GA B2- | B2 AG A4 | B4 z2 B2 | A2 B2 G2 A2 | B4 z2 A2- | %37
w: sia ca- s'o- dar-|* * te hor|ac- com- pa- gna'ed ho-||ra, al-|ter- nai ver- si|lor la|
 A2 G4 F2- | F2 E2 F2 A2 | G2 A2 F2 G2 | AGFE D2 C2 | D2 D2 C2 A2- | A2 G4 F2 | E2 F4 E2 | F8 |] %45
w: _ mu- si|_ ca'o- ra, al-|ter- nai ver- si|lor _ _ _ _ i|ver- si lor la|_ mu- si-|ca o- *|ra.|
V:3
 z8 | z8 | z2 f2 d2 B2 | f4 B4 | z2 F3 F G2 | A2 c2 =B4 | c4 F4 | F2 F2 F4 | F4 B3 c | d2 f2 B3 c | %10
w: ||Vez- zo- si'au-|gel- li,|in- fra le|ver- de fron-|de, tem-|pran' a pro-|va la sci-|vet- te, la sci-|
 d2 _e2 d4 | G4 z2 B2- | BA B2 A4 | G2 G2 GFGA | B2 AG F2 F2 | cBcd _e2 dc | B2 AG F4 | %17
w: vet- * *|te, mor-|* mo- ra l'au-|ra e fa le fo- glie|l'on- de Ga- rir e|fra le fo- gli'e l'on- de Ga-|* * * rir|
[M:3/4] c2 d2 B2 | c2 F3 C | D2 A2 D2 |[M:4/4] z4 d2 d2 | d6xB | A8 | A4 z2 f2- | ff g2 d2 G2 | %25
w: che va- ria-|men- t'el- la|per- co- te,|Quan- do|tac gli'au-|gel-|li al|_ to tis- pon- de,|
 z4 B2 B2 | B6 AG | F8 | F4 G2 D2 | A4 D4 | d4 B2 A2 | G4 F2 f2 | _e2 d2 c2 B2 | F8 | B4 B4 | %35
w: quan- do|can- tan gli'au-|gei|piu lie- ve|sco- te,|sia ca- s'o-|dar- te hor|ac- com- pa- gna'ed|ho-|ra, al-|
 f2 d2 _e2 c2 | B4 F4 | G2 G2 A3 B | c4 F2 f2 | e2 f2 d2 e2 | f2 F2 G2 A2 | F2 G2 A2 F2- | %42
w: ter- nai ver- si|lor la|mu- si- ca'o- *|* ra, al-|ter- nai ver- si|lor la mi- si-|ca'o- * ra, la|
 F2 _E4 D2 | C8 | F8 |] %45
w: _ mi- si-|ca'o-|ra.|

